svg/OSM-icons/shop #ac39ac °ffffff !label=enshops,deLäden/29046;shop=dry_cleaning;!name=;[shop];!label=endry cleaning,deReinigung.svg

<svg xmlns="http://www.w3.org/2000/svg" viewBox="0 0 580 580" enable-background="new 0 0 580 580"><path fill="#111" stroke="#eee" stroke-width="3.408" d="m66.28 1.768c-41.34 0-64.57 21.371-64.57 65.04v450.12c0 40.844 20.896 62.23 62.19 62.23h452.02c41.31 0 62.23-20.314 62.23-62.23v-450.12c0-42.602-20.923-65.04-63.52-65.04-.003 0-448.5-.143-448.35 0z"/><g fill="#fff"><path d="m192.77 85.78c-8.733 0-15.791 7.06-15.791 15.791 0 8.732 7.06 15.791 15.791 15.791 8.731 0 15.79-7.06 15.79-15.791 0-8.733-7.06-15.791-15.79-15.791"/><path d="m135.61 85.78c-8.703 0-15.79 7.06-15.79 15.791 0 8.732 7.087 15.791 15.79 15.791 8.732 0 15.79-7.06 15.79-15.791 0-8.733-7.06-15.791-15.79-15.791"/><path d="m82.71 52.26v88.22h414.58v-88.22h-414.58m52.898 72.982c-13.09 0-23.67-10.585-23.67-23.67 0-13.09 10.585-23.671 23.67-23.671 13.09 0 23.7 10.585 23.7 23.671.0001 13.09-10.614 23.67-23.7 23.67m57.16 0c-13.09 0-23.672-10.585-23.672-23.67 0-13.09 10.586-23.671 23.672-23.671 13.09 0 23.67 10.585 23.67 23.671 0 13.09-10.585 23.67-23.67 23.67m250.79 0c-13.06 0-23.67-10.585-23.67-23.67 0-13.09 10.613-23.671 23.67-23.671 13.12 0 23.701 10.585 23.701 23.671.0001 13.09-10.585 23.67-23.701 23.67"/><path d="m82.71 153.99v373.75h414.58v-373.75h-414.58m207.29 343.51c-81.51 0-147.59-66.08-147.59-147.59 0-81.51 66.08-147.59 147.59-147.59 81.51 0 147.59 66.08 147.59 147.59 0 81.51-66.08 147.59-147.59 147.59"/></g></svg>

<?xml version="1.0" encoding="utf-8"?>
<!-- Generator: Adobe Illustrator 15.0.0, SVG Export Plug-In . SVG Version: 6.00 Build 0)  -->
<!DOCTYPE svg PUBLIC "-//W3C//DTD SVG 1.1//EN" "http://www.w3.org/Graphics/SVG/1.1/DTD/svg11.dtd">
<svg version="1.1" id="Layer_1" xmlns="http://www.w3.org/2000/svg" xmlns:xlink="http://www.w3.org/1999/xlink" x="0px" y="0px"
	 width="580px" height="580px" viewBox="0 0 580 580" enable-background="new 0 0 580 580" xml:space="preserve">
<g id="Layer_2">
	<g id="g1327">
		<path id="path1329" fill="#111111" stroke="#EEEEEE" stroke-width="3.408" d="M66.275,1.768
			c-41.335,0-64.571,21.371-64.571,65.036v450.123c0,40.844,20.896,62.229,62.192,62.229h452.024
			c41.307,0,62.229-20.314,62.229-62.229V66.804c0-42.602-20.923-65.036-63.521-65.036C514.625,1.768,66.133,1.625,66.275,1.768z"/>
	</g>
</g>
<g>
	<path fill="#FFFFFF" d="M192.773,85.783c-8.733,0-15.791,7.058-15.791,15.791c0,8.732,7.058,15.791,15.791,15.791
		c8.731,0,15.79-7.059,15.79-15.791C208.563,92.841,201.506,85.783,192.773,85.783z"/>
	<path fill="#FFFFFF" d="M135.609,85.783c-8.703,0-15.79,7.058-15.79,15.791c0,8.732,7.087,15.791,15.79,15.791
		c8.732,0,15.79-7.059,15.79-15.791C151.399,92.841,144.343,85.783,135.609,85.783z"/>
	<path fill="#FFFFFF" d="M82.711,52.262v88.224h414.578V52.262H82.711z M135.609,125.244c-13.085,0-23.67-10.585-23.67-23.67
		c0-13.086,10.585-23.671,23.67-23.671c13.086,0,23.7,10.585,23.7,23.671C159.31,114.659,148.695,125.244,135.609,125.244z
		 M192.773,125.244c-13.086,0-23.672-10.585-23.672-23.67c0-13.086,10.586-23.671,23.672-23.671c13.085,0,23.67,10.585,23.67,23.671
		C216.443,114.659,205.858,125.244,192.773,125.244z M443.566,125.244c-13.057,0-23.67-10.585-23.67-23.67
		c0-13.086,10.613-23.671,23.67-23.671c13.115,0,23.701,10.585,23.701,23.671C467.268,114.659,456.682,125.244,443.566,125.244z"/>
</g>
<path fill="#FFFFFF" d="M82.711,153.985v373.753h414.578V153.985H82.711z M290,497.5c-81.512,0-147.59-66.077-147.59-147.59
	c0-81.512,66.078-147.59,147.59-147.59c81.513,0,147.591,66.078,147.591,147.59C437.591,431.423,371.512,497.5,290,497.5z"/>
</svg>
